!!!OTL:Schwaebisches Tanzliedchen.
!!!OTL-incipit:ROSENSTOCK HOLDERBLUETH
!!!COM: H. Langer
!!!ARE: Europa, Mitteleuropa, Deutschland, Schwaben
!!!SCT: F0203A
!!!TXL: @@GSW
!!!YEM: Copyright 1995, estate of Helmut Schaffrath.
**kern	**text
*ICvox	*
*clefG2	*
*M3/4	*
*k[]	*
*C:	*
=1	=1
!LO:TX:a:t=Ländlertempo-	!
!LO:TX:a:t=Ges. v. H. Langer	!
{4.ee/	Ro-
8dd/	-sen-
(8ccL	-stock,
8eJ)	.
=2	=2
4a	Hol-
(8gL	-der-
8fJ)	-blüth',
4d}	.
=3	=3
{4a	wenn
(8gL	i
8fJ)	.
4d	mei
=4	=4
4a	Dirnderl
(8gL	.
8eJ)	.
4c}	sieh,
=5	=5
{4.ee/	lacht
8dd/	mer
(8ccL	vor
8eJ)	.
=6	=6
4a	lau-
(8gL	-ter
8fJ)	.
4d}	Freund'
=7	=7
{4g	's
4a	Herzel
4b/	im
=8	=8
2cc/	Lieb.
4r}	.
=9	=9
{8ff'/	La
8ee'/	la
2dd/^	la,
=10	=10
8ee'/	la
8dd'/	la
2cc/^}	la,
=11	=11
{4g	la
4a	la
4b/	la
=12	=12
16ddq	.
8cc/	la
8b/	la
8cc/	la
8dd/	la
4ee/}	la
=13	=13
{8ff'/	la
8ee'/	la
2dd/^	la,
=14	=14
8ee'/	la
8dd'/	la
2cc/^}	la
=15	=15
{4g^^	la
4a^^	la
4b/^^	la
=16	=16
2cc/	la!
4r}	.
==	==
!!!AGN: Tanz - Lied, Liebe
!!!ONB: ESAC (Essen Associative Code) Database: FINK
!!!AMT: simple triple
!!!AIN: vox
!!!EED: Helmut Schaffrath
!!!EEV: 1.0
!!Text: Volkslied
*-	*-
